X: 36123
T: Scolding Wife, The
R: reel
M: 4/4
K: Dmajor
|:D2AG FAAG|F2AF dFAF|D2AG FGAd|1 BdAF GBAF:|2 BdAF GBeg||
fddc dfaf|gfef geag|fddc defg|ecAF GBeg|
fddc dfaf|gfef geag|fdec defd|dcAF GBAF||

